common/app/assets/images/global/share-email--white.svg

<svg xmlns="http://www.w3.org/2000/svg" width="32" height="32" viewBox="-2 -2 32 32" enable-background="new -2 -2 36 36"><path d="M20.196 11.714l-.352-.447-5.665 2.671-5.738-2.671-.266.446 5.996 4.912zm1.204-4.691l-14.868-.023-1.532 2.505v9.294l1.614 1.201h14.846l1.541-1.2v-9.295l-1.6-2.482zm-.518 10.811h-13.765v-8.667h13.765v8.667z" fill="#fff"/></svg>

<svg xmlns="http://www.w3.org/2000/svg" width="32" height="32" viewBox="-2 -2 32 32" enable-background="new -2 -2 36 36"><path d="M20.196 11.714l-.352-.447-5.665 2.67-5.74-2.67-.265.446 5.996 4.912zm1.204-4.69L6.532 7 5 9.505V18.8L6.614 20H21.46L23 18.8V9.505l-1.6-2.482zm-.518 10.81H7.117V9.167h13.765v8.667z" fill="#fff"/></svg>
